X:451
%%etbk:tnset id:142,pos:1,rep:3x,ant:
%%etbk:wsite http://thesession.org/tunes/957
%%etbk:pldat 2016-06-21T15:35,2016-05-04T14:13,2016-03-11T17:12,2016-03-10T17:54,2016-03-09T15:09,2016-03-07T18:12,2015-10-29T18:02,2015-10-26T17:54,2015-10-22T19:00,2015-09-30T16:39,2015-06-23T19:05,2015-03-13T18:36,2015-03-12T18:45,2015-03-09T17:47,2014-11-06T18:45,2014-11-04T15:13,2014-10-28T16:59,2014-08-21T19:46,2014-06-25T16:18,2014-03-06T18:30,2014-03-04T17:57,2014-03-02T16:22,2014-02-24T18:50,2013-10-29T16:32,2013-10-27T14:39,2013-10-16T16:11,2013-10-10T20:01
T: Fanny Power
Z: Piano Box Version by Martin Fleischmann
H: Created 2013-02-19 /  Last Modified 2013-02-19
R: waltz
M: 3/4
L: 1/8
K: Gmaj
!2!D2 |: "G"!4!G4 !2!D2 | !1!G3 A B2 | "C"!4!c4 B2 | !2!A4 !1!G2 | "D"!4!G2F2E2 | !1!D3 E D2 | !3!F4 !1!G2 | !2!A4 !4!c2 |
"G"!3!B3 A G2 | !3!B3 !1!c d2 | "C"!3!e3!1!A !3!A2 | !5!A4 G2 | "D"!4!G2 F2 E2 | !1!D2< !4!G2 F2 | "G"!4!G6- | G6 :|
!2!B2c2 |: "G"!4!d2 !2!Bc d2 | !4!d2 Bc d2 | !1!G3 A G2 | !1!G2 !2!B2 !4!d2 | "C"!3!e2 !1!cd !3!e2 | e2 cd e2 | "D"!1!A3 B A2 | !1!A2 B2 c2 |
"G"!2!B3c !4!d2 | "C"!2!e2 f2 g2 | "D"!3!f3g a2 | !1!!5!d4 c2 | "G"!3!B3 A !1!G2 | "D"!2!A!4!c- c2 !2!F2 | "G"!1!G6- | G6 :|


